icons/receipt-outline.svg

<svg xmlns="http://www.w3.org/2000/svg" width="24" height="24" viewBox="0 0 24 24">
  <path d="M18,1 C19.6568542,1 21,2.34314575 21,4 L21,4 L21,20.8865781 C21,21.7150052 20.3284271,22.3865781 19.5,22.3865781 C19.1326288,22.3865781 18.7780309,22.2517602 18.5034542,22.0076921 L18.5034542,22.0076921 L17.063,20.727 L15.5943058,22.2948546 C15.0631226,22.86145 14.1956187,22.9237753 13.5912714,22.4624925 L13.5912714,22.4624925 L13.4740883,22.3632487 C13.4624442,22.3520948 13.4546815,22.3446588 13.448267,22.3384077 L13.448267,22.3384077 L12,20.795 L10.5943058,22.2948546 C10.0631226,22.86145 9.19561867,22.9237753 8.59127138,22.4624925 L8.59127138,22.4624925 L8.47408831,22.3632487 C8.46244421,22.3520948 8.45468148,22.3446588 8.448267,22.3384077 L8.448267,22.3384077 L6.936,20.727 L5.49654576,22.0076921 C4.91606999,22.5236705 4.04649172,22.5069016 3.48656522,21.9926062 L3.48656522,21.9926062 L3.37888602,21.8831238 C3.13481785,21.6085471 3,21.2539493 3,20.8865781 L3,20.8865781 L3,4 C3,2.34314575 4.34314575,1 6,1 L6,1 Z M18,3 L6,3 C5.44771525,3 5,3.44771525 5,4 L5,4 L5,19.772 L5.97170899,18.9094148 C6.54133357,18.4030819 7.39189947,18.4085437 7.95412802,18.8998793 L7.95412802,18.8998793 L8.06256056,19.0046171 L9.499,20.537 L10.9237953,19.0196151 L11.0912714,18.8708409 C11.6956187,18.4095581 12.5631226,18.4718833 13.0943058,19.0384787 L13.0943058,19.0384787 L14.5,20.537 L15.9374394,19.0046171 C16.4586929,18.4486134 17.3062356,18.3767556 17.9107889,18.8149645 L17.9107889,18.8149645 L18.028291,18.9094148 L19,19.773 L19,4 C19,3.48716416 18.6139598,3.06449284 18.1166211,3.00672773 L18.1166211,3.00672773 L18,3 Z M16,13 C16.5522847,13 17,13.4477153 17,14 C17,14.5128358 16.6139598,14.9355072 16.1166211,14.9932723 L16,15 L8,15 C7.44771525,15 7,14.5522847 7,14 C7,13.4871642 7.38604019,13.0644928 7.88337887,13.0067277 L8,13 L16,13 Z M16,9 C16.5522847,9 17,9.44771525 17,10 C17,10.5128358 16.6139598,10.9355072 16.1166211,10.9932723 L16,11 L8,11 C7.44771525,11 7,10.5522847 7,10 C7,9.48716416 7.38604019,9.06449284 7.88337887,9.00672773 L8,9 L16,9 Z M16,5 C16.5522847,5 17,5.44771525 17,6 C17,6.51283584 16.6139598,6.93550716 16.1166211,6.99327227 L16,7 L8,7 C7.44771525,7 7,6.55228475 7,6 C7,5.48716416 7.38604019,5.06449284 7.88337887,5.00672773 L8,5 L16,5 Z"/>
</svg>

<svg xmlns="http://www.w3.org/2000/svg" viewBox="0 0 24 24">
  <path d="M18 1a3 3 0 0 1 3 3v16.89A1.5 1.5 0 0 1 18.5 22l-1.44-1.28-1.47 1.56a1.5 1.5 0 0 1-2 .17l-.12-.1a4.53 4.53 0 0 1-.02-.02L12 20.8l-1.4 1.5a1.5 1.5 0 0 1-2 .16l-.13-.1a4.53 4.53 0 0 1-.02-.02l-1.51-1.61L5.5 22a1.5 1.5 0 0 1-2.01-.02l-.11-.1a1.5 1.5 0 0 1-.38-1V4a3 3 0 0 1 3-3zm0 2H6a1 1 0 0 0-1 1v15.77l.97-.86a1.5 1.5 0 0 1 1.98-.01l.11.1 1.44 1.54 1.42-1.52.17-.15a1.5 1.5 0 0 1 2 .17l1.41 1.5L15.94 19a1.5 1.5 0 0 1 1.97-.19l.12.1.97.86V4a1 1 0 0 0-.88-1H18zm-2 10a1 1 0 0 1 .12 2H8a1 1 0 0 1-.12-2H16zm0-4a1 1 0 0 1 .12 2H8a1 1 0 0 1-.12-2H16zm0-4a1 1 0 0 1 .12 2H8a1 1 0 0 1-.12-2H16z"/>
</svg>
